X:94
T:Millpond
Z: id:dc-jig-76
M:6/8
L:1/8
K:G Major
E|DGG BGG|dGG BGG|DFA DFA|DFA cBA|!
DGG BGG|dGG BGG|DFA cBA|AGF G2:|!
B|dgg bgg|aff gee|A^ce aba|gag fed|!
dgg bgg|aff gee|ABc dcA|AGF G2:|!

